assets/GRID_logo.svg

<svg width="99" height="33" viewBox="0 0 99 33" fill="none" xmlns="http://www.w3.org/2000/svg">
<path d="M15.924 32.48C10.836 32.48 6.996 31.104 4.404 28.352C1.844 25.6 0.564 21.872 0.564 17.168C0.564 13.776 1.124 10.848 2.244 8.384C3.364 5.888 5.06 3.968 7.332 2.624C9.636 1.28 12.548 0.607998 16.068 0.607998C17.892 0.607998 19.54 0.735998 21.012 0.991999C22.516 1.216 23.924 1.552 25.236 2V6.512C22.612 5.552 19.7 5.072 16.5 5.072C12.564 5.072 9.796 6.112 8.196 8.192C6.628 10.272 5.844 13.264 5.844 17.168C5.844 20.72 6.676 23.424 8.34 25.28C10.004 27.136 12.58 28.064 16.068 28.064C18.82 28.064 21.044 27.744 22.74 27.104V18.464H15.012V15.056H27.204V29.936C26.212 30.576 24.788 31.168 22.932 31.712C21.108 32.224 18.772 32.48 15.924 32.48ZM32.274 32V1.088H46.482C49.938 1.088 52.45 1.984 54.018 3.776C55.618 5.536 56.418 7.936 56.418 10.976C56.418 13.152 55.874 15.008 54.786 16.544C53.698 18.08 52.13 19.152 50.082 19.76C50.658 20.176 51.106 20.624 51.426 21.104C51.746 21.584 52.066 22.224 52.386 23.024L56.274 32H50.898L47.106 23.36C46.754 22.528 46.322 21.936 45.81 21.584C45.33 21.232 44.498 21.056 43.314 21.056H37.506V32H32.274ZM37.506 16.832H45.09C46.978 16.832 48.466 16.368 49.554 15.44C50.642 14.512 51.186 13.024 51.186 10.976C51.186 7.104 49.314 5.168 45.57 5.168H37.506V16.832ZM61.5709 32V1.088H66.8029V32H61.5709ZM72.8678 32V1.088H85.3958C89.9718 1.088 93.3638 2.304 95.5718 4.736C97.7798 7.136 98.8838 11.136 98.8838 16.736C98.8838 22.016 97.7958 25.888 95.6198 28.352C93.4438 30.784 90.0358 32 85.3958 32H72.8678ZM78.0998 27.968H84.5798C86.5958 27.968 88.2758 27.68 89.6198 27.104C90.9638 26.496 91.9718 25.376 92.6438 23.744C93.3158 22.112 93.6518 19.776 93.6518 16.736C93.6518 13.696 93.3478 11.344 92.7398 9.68C92.1318 8.016 91.1558 6.848 89.8118 6.176C88.4998 5.504 86.7558 5.168 84.5798 5.168H78.0998V27.968Z" fill="white"/>
</svg>

<?xml version="1.0" encoding="UTF-8"?>
<svg id="Layer_1" xmlns="http://www.w3.org/2000/svg" version="1.1" viewBox="0 0 99 33">
  <!-- Generator: Adobe Illustrator 29.7.1, SVG Export Plug-In . SVG Version: 2.1.1 Build 8)  -->
  <path d="M15.9,32.5c-5.1,0-8.9-1.4-11.5-4.1-2.6-2.8-3.8-6.5-3.8-11.2s.6-6.3,1.7-8.8c1.1-2.5,2.8-4.4,5.1-5.8,2.3-1.3,5.2-2,8.7-2s3.5.1,4.9.4c1.5.2,2.9.6,4.2,1v4.5c-2.6-1-5.5-1.4-8.7-1.4s-6.7,1-8.3,3.1c-1.6,2.1-2.4,5.1-2.4,9s.8,6.3,2.5,8.1c1.7,1.9,4.2,2.8,7.7,2.8s5-.3,6.7-1v-8.6h-7.7v-3.4h12.2v14.9c-1,.6-2.4,1.2-4.3,1.8-1.8.5-4.2.8-7,.8ZM32.3,32V1.1h14.2c3.5,0,6,.9,7.5,2.7,1.6,1.8,2.4,4.2,2.4,7.2s-.5,4-1.6,5.6c-1.1,1.5-2.7,2.6-4.7,3.2.6.4,1,.9,1.3,1.3s.6,1.1,1,1.9l3.9,9h-5.4l-3.8-8.6c-.4-.8-.8-1.4-1.3-1.8-.5-.4-1.3-.5-2.5-.5h-5.8v10.9h-5.2ZM37.5,16.8h7.6c1.9,0,3.4-.5,4.5-1.4,1.1-.9,1.6-2.4,1.6-4.5,0-3.9-1.9-5.8-5.6-5.8h-8.1v11.7ZM61.6,32V1.1h5.2v30.9h-5.2ZM72.9,32V1.1h12.5c4.6,0,8,1.2,10.2,3.6,2.2,2.4,3.3,6.4,3.3,12s-1.1,9.2-3.3,11.6c-2.2,2.4-5.6,3.6-10.2,3.6h-12.5ZM78.1,28h6.5c2,0,3.7-.3,5-.9,1.3-.6,2.4-1.7,3-3.4.7-1.6,1-4,1-7s-.3-5.4-.9-7.1c-.6-1.7-1.6-2.8-2.9-3.5-1.3-.7-3.1-1-5.2-1h-6.5v22.8Z" fill="#fff"/>
</svg>
